X:1
T:[ID 2-108]
T:[ID 2-108]
T:Bezeichnung standardisiert: Menuet Le post; Men\"uet Le post
T:Urheber unbekannt Datum in der hier transkribierten schriftlichen Quelle: 1767
C:Urheber unbekannt
C:Datum in der hier transkribierten schriftlichen Quelle: 1767
L:1/8
M:3/4
K:Bb
V:1 treble 
V:1
 B2 b2 B2 | B6 | B2 b2 B2 | B6 | dcdede | fefgfe | d2 edcB | A2 GA F2 |"^O)" B2 b2 B2 | B6 | %10
"^O)" B2 b2 B2 | B6 | dcdede | f2 ga b2 | ge d2 Tc2 | B6 :: d2 g2 a2 | b2 ab g2 | a2 g2 ^f2 | %19
 g^fga g2 | d2 g2 a2 | b2 ab g2 | a2 g2 ^f2 | g6 | =f2 ffff | f2 b2 f2 | f2 gfed | c6 | %28
"^O)" c2 c'2 c2 | c6 |"^O)" c2 c'2 c2 | c6 | f=efagf | =edcBAG | F2 f2 =e2 | f6 |"^O)" F2 f2 F2 | %37
 F6 |"^O)" F2 f2 F2 | F6 | BABdcB | AGFEDC | B,2 B2 A2 | B6 :| %44

